X:45
T: Carraig aonair, S. 83
N: I0544
O: Irland
S: O'SULLIVAN, Donal: Song of the Irish]
R: Klagelied]
M: 3/4
L: 1/16
K: E
E3F | =G4A4E2F2 | =G8E2E2 | =G4A2B2=d4 | e8
e4 | =d4B4B3A | B=d3B4A3=G | F4E4E4 | E8
E3F | =G4A4E2F2 | =G8E4 | =G4A2B2=d4 | e8
e4 | =d4B4B3A | B=d3B4A3=G | F4E4E4 | E8

@@@ Tune index: 7320
